icons/1_Primary/Xiaomi.svg

<svg width="1024" height="1024" fill="none" xmlns="http://www.w3.org/2000/svg"><g clip-path="url(#a)"><path d="M512 1024c282.77 0 512-229.23 512-512S794.77 0 512 0 0 229.23 0 512s229.23 512 512 512Z" fill="#F8C18C"/><path d="M512 256c-85 0-154.54 5.44-202.82 53.67C260.9 357.9 256 427.37 256 512.26s4.91 154.35 53.21 202.6S427 768 512 768c85 0 154.52-4.91 202.79-53.14C763.06 666.63 768 597.12 768 512.26s-5-154.52-53.38-202.75C666.24 261.28 596.86 256 512 256ZM360.66 414h120c31.36 0 64.15 1.45 80.3 17.64 15.91 15.91 17.64 47.64 17.71 78.42v96.85a3.203 3.203 0 0 1-3.27 3.09h-41.53a3.21 3.21 0 0 1-2.275-.909 3.213 3.213 0 0 1-.965-2.251v-98.5c0-17.19-1-34.86-9.9-43.75-7.64-7.68-21.89-9.41-36.69-9.77H408.7a3.202 3.202 0 0 0-3.22 3.14v148.93a3.196 3.196 0 0 1-2.012 2.932 3.21 3.21 0 0 1-1.228.228h-41.58a3.203 3.203 0 0 1-3.2-3.16V417.15c.013-.84.356-1.641.955-2.23a3.196 3.196 0 0 1 2.245-.92Zm258.79 0H661a3.2 3.2 0 0 1 3.2 3.2v189.7a3.2 3.2 0 0 1-3.2 3.1h-41.54a3.203 3.203 0 0 1-3.22-3.16V417.15a3.211 3.211 0 0 1 .951-2.257 3.203 3.203 0 0 1 2.269-.923l-.01.03Zm-173.16 75.56h43.65a3.162 3.162 0 0 1 2.25.907 3.164 3.164 0 0 1 .95 2.233v114.17a3.202 3.202 0 0 1-3.2 3.16h-43.65a3.21 3.21 0 0 1-2.275-.909 3.197 3.197 0 0 1-.965-2.251V492.69a3.199 3.199 0 0 1 3.24-3.13Z" fill="#fff"/></g><defs><clipPath id="a"><path fill="#fff" d="M0 0h1024v1024H0z"/></clipPath></defs></svg>

<svg width="1024" height="1024" viewBox="0 0 1024 1024" fill="none" xmlns="http://www.w3.org/2000/svg">
<g clip-path="url(#clip0_2_3984)">
<path d="M512 1024C794.77 1024 1024 794.77 1024 512C1024 229.23 794.77 0 512 0C229.23 0 0 229.23 0 512C0 794.77 229.23 1024 512 1024Z" fill="#F8C18C"/>
<path d="M512 256C427 256 357.46 261.44 309.18 309.67C260.9 357.9 256 427.37 256 512.26C256 597.15 260.91 666.61 309.21 714.86C357.51 763.11 427 768 512 768C597 768 666.52 763.09 714.79 714.86C763.06 666.63 768 597.12 768 512.26C768 427.4 763 357.74 714.62 309.51C666.24 261.28 596.86 256 512 256ZM360.66 414H480.66C512.02 414 544.81 415.45 560.96 431.64C576.87 447.55 578.6 479.28 578.67 510.06V606.91C578.641 607.752 578.282 608.548 577.67 609.127C577.058 609.705 576.242 610.019 575.4 610H533.87C533.45 610.005 533.033 609.928 532.642 609.772C532.252 609.616 531.896 609.385 531.595 609.091C531.295 608.798 531.055 608.448 530.889 608.062C530.723 607.675 530.635 607.26 530.63 606.84V508.34C530.63 491.15 529.63 473.48 520.73 464.59C513.09 456.91 498.84 455.18 484.04 454.82H408.7C407.858 454.815 407.048 455.141 406.445 455.729C405.843 456.317 405.496 457.118 405.48 457.96V606.89C405.475 607.31 405.387 607.725 405.221 608.112C405.056 608.498 404.815 608.848 404.515 609.141C404.214 609.435 403.858 609.666 403.468 609.822C403.077 609.978 402.66 610.055 402.24 610.05H360.66C359.818 610.05 359.01 609.718 358.411 609.127C357.812 608.535 357.471 607.732 357.46 606.89V417.15C357.473 416.31 357.816 415.509 358.415 414.92C359.013 414.33 359.82 414 360.66 414ZM619.45 414H661C661.849 414 662.663 414.337 663.263 414.937C663.863 415.537 664.2 416.351 664.2 417.2V606.9C664.174 607.731 663.825 608.52 663.228 609.098C662.631 609.677 661.832 610 661 610H619.46C618.615 610.005 617.802 609.676 617.198 609.084C616.595 608.492 616.251 607.685 616.24 606.84V417.15C616.243 416.73 616.328 416.314 616.491 415.927C616.654 415.54 616.892 415.188 617.191 414.893C617.49 414.598 617.845 414.364 618.234 414.206C618.623 414.048 619.04 413.967 619.46 413.97L619.45 414ZM446.29 489.56H489.94C490.356 489.556 490.769 489.634 491.155 489.79C491.542 489.945 491.893 490.176 492.19 490.467C492.488 490.759 492.724 491.106 492.887 491.489C493.05 491.872 493.136 492.284 493.14 492.7V606.87C493.129 607.712 492.788 608.515 492.189 609.107C491.59 609.698 490.782 610.03 489.94 610.03H446.29C445.87 610.035 445.453 609.958 445.062 609.802C444.672 609.646 444.316 609.415 444.015 609.121C443.715 608.828 443.474 608.478 443.309 608.092C443.143 607.705 443.055 607.29 443.05 606.87V492.69C443.068 491.847 443.419 491.044 444.026 490.458C444.633 489.872 445.446 489.549 446.29 489.56Z" fill="white"/>
</g>
<defs>
<clipPath id="clip0_2_3984">
<rect width="1024" height="1024" fill="white"/>
</clipPath>
</defs>
</svg>
